assets/svg/icon_notinterested.svg

<svg width="24" height="24" viewBox="0 0 24 24" fill="none" xmlns="http://www.w3.org/2000/svg">
<path d="M14.7212 11.2015C15.2293 11.2015 15.6412 10.5837 15.6412 9.82147C15.6412 9.05928 15.2293 8.44141 14.7212 8.44141C14.2131 8.44141 13.8012 9.05928 13.8012 9.82147C13.8012 10.5837 14.2131 11.2015 14.7212 11.2015Z" fill="#727689"/>
<path d="M9.19934 11.2015C9.70746 11.2015 10.1194 10.5837 10.1194 9.82147C10.1194 9.05928 9.70746 8.44141 9.19934 8.44141C8.69121 8.44141 8.2793 9.05928 8.2793 9.82147C8.2793 10.5837 8.69121 11.2015 9.19934 11.2015Z" fill="#727689"/>
<path d="M9.20234 16.5599C9.98473 15.98 10.9362 15.6398 11.9625 15.6398C12.9887 15.6398 13.9402 15.98 14.7226 16.5599M21.1625 11.9602C21.1625 16.2972 21.1625 18.4658 19.8151 19.8132C18.4678 21.1605 16.2992 21.1605 11.9621 21.1605C7.625 21.1605 5.45645 21.1605 4.10909 19.8132C2.76172 18.4658 2.76172 16.2972 2.76172 11.9602C2.76172 7.62305 2.76172 5.4545 4.10909 4.10714C5.45645 2.75977 7.625 2.75977 11.9621 2.75977C16.2992 2.75977 18.4678 2.75977 19.8151 4.10714C20.711 5.00301 21.0112 6.26194 21.1118 8.28" stroke="#727689" stroke-width="1.13855" stroke-linecap="round"/>
</svg>

<svg xmlns="http://www.w3.org/2000/svg" width="24" height="24" fill="none"><path fill="#727689" d="M14.721 11.202c.508 0 .92-.618.92-1.38 0-.763-.412-1.38-.92-1.38s-.92.617-.92 1.38.412 1.38.92 1.38M9.2 11.202c.507 0 .92-.618.92-1.38 0-.763-.413-1.38-.92-1.38-.509 0-.92.617-.92 1.38s.411 1.38.92 1.38"/><path stroke="#727689" stroke-linecap="round" stroke-width="1.139" d="M9.202 16.56a4.6 4.6 0 0 1 2.76-.92c1.027 0 1.978.34 2.76.92m6.44-4.6c0 4.337 0 6.506-1.347 7.853-1.347 1.348-3.516 1.348-7.853 1.348s-6.506 0-7.853-1.348c-1.347-1.347-1.347-3.516-1.347-7.853s0-6.506 1.347-7.853S7.625 2.76 11.962 2.76s6.506 0 7.853 1.347c.896.896 1.196 2.155 1.297 4.173"/></svg>
